symbols/web/filter/materialsymbolsrounded/filter_wght300_48px.svg

<svg xmlns="http://www.w3.org/2000/svg" height="48" width="48"><path d="M19.1 28.55h15.4q.45 0 .65-.425t-.05-.775l-4.35-5.85q-.25-.3-.6-.3t-.6.3L25 27.35l-2.75-3.45q-.25-.3-.6-.275-.35.025-.6.325l-2.55 3.4q-.3.4-.1.8.2.4.7.4Zm-5.2 7.9q-1.15 0-2-.85-.85-.85-.85-2V7.9q0-1.2.85-2.05.85-.85 2-.85h25.7q1.2 0 2.05.85.85.85.85 2.05v25.7q0 1.15-.85 2-.85.85-2.05.85Zm0-2.25h25.7q.3 0 .475-.175t.175-.425V7.9q0-.3-.175-.475T39.6 7.25H13.9q-.25 0-.425.175T13.3 7.9v25.7q0 .25.175.425t.425.175ZM8.4 42q-1.2 0-2.05-.85-.85-.85-.85-2.05V12.3q0-.5.325-.825.325-.325.825-.325.5 0 .8.325.3.325.3.825v26.8q0 .3.175.475t.475.175h26.8q.5 0 .825.325.325.325.325.775 0 .5-.325.825Q35.7 42 35.2 42Zm4.9-34.75V34.2 7.25Z"/></svg>

<svg xmlns="http://www.w3.org/2000/svg" height="48" width="48"><path d="M19.1 28.55H34.5Q34.95 28.55 35.15 28.125Q35.35 27.7 35.1 27.35L30.75 21.5Q30.5 21.2 30.15 21.2Q29.8 21.2 29.55 21.5L25 27.35L22.25 23.9Q22 23.6 21.65 23.625Q21.3 23.65 21.05 23.95L18.5 27.35Q18.2 27.75 18.4 28.15Q18.6 28.55 19.1 28.55ZM13.9 36.45Q12.75 36.45 11.9 35.6Q11.05 34.75 11.05 33.6V7.9Q11.05 6.7 11.9 5.85Q12.75 5 13.9 5H39.6Q40.8 5 41.65 5.85Q42.5 6.7 42.5 7.9V33.6Q42.5 34.75 41.65 35.6Q40.8 36.45 39.6 36.45ZM13.9 34.2H39.6Q39.9 34.2 40.075 34.025Q40.25 33.85 40.25 33.6V7.9Q40.25 7.6 40.075 7.425Q39.9 7.25 39.6 7.25H13.9Q13.65 7.25 13.475 7.425Q13.3 7.6 13.3 7.9V33.6Q13.3 33.85 13.475 34.025Q13.65 34.2 13.9 34.2ZM8.4 42Q7.2 42 6.35 41.15Q5.5 40.3 5.5 39.1V12.3Q5.5 11.8 5.825 11.475Q6.15 11.15 6.65 11.15Q7.15 11.15 7.45 11.475Q7.75 11.8 7.75 12.3V39.1Q7.75 39.4 7.925 39.575Q8.1 39.75 8.4 39.75H35.2Q35.7 39.75 36.025 40.075Q36.35 40.4 36.35 40.85Q36.35 41.35 36.025 41.675Q35.7 42 35.2 42ZM13.3 7.25Q13.3 7.25 13.3 7.425Q13.3 7.6 13.3 7.9V33.6Q13.3 33.85 13.3 34.025Q13.3 34.2 13.3 34.2Q13.3 34.2 13.3 34.025Q13.3 33.85 13.3 33.6V7.9Q13.3 7.6 13.3 7.425Q13.3 7.25 13.3 7.25Z"/></svg>
